X: 5450
T: Bunch Of Green Rushes, The
R: reel
M: 4/4
K: Dmixolydian
|:cAGE =F3d|cAGc AddB|cAGE =F2eg|fdec AddB:|
|:AddB cAGE|=FGAB cAGc|AddB cAGA|(3Bcd eg gece:|
d2fd adfd|c2ec gcec|d2fd adfd|cAGc Addc|
d2fd adfd|c2ec gc;eg|a3g e=fed|cAGc Add2||

